svg/UnitedNationsOCHA-Humanitarian/telecommunications_internet_icon_box.svg

<svg xmlns="http://www.w3.org/2000/svg" viewBox="0 0 32 32" enable-background="new 0 0 32 32"><path fill="#407cca" d="m25.6 0h-19.2c-3.52 0-6.4 2.88-6.4 6.4v19.2c0 3.52 2.88 6.4 6.4 6.4h19.2c3.521 0 6.4-2.88 6.4-6.4v-19.2c0-3.52-2.88-6.4-6.4-6.4m-21.07 4.919c0-.531.43-.959.959-.959h21.02c.529 0 .959.428.959.959v14.641c0 .531-.43.959-.959.959h-21.02c-.53 0-.959-.428-.959-.959v-14.641m21.72 23.12l-20.484-.013c-1.256 0-2.02-.994-1.69-2.206l.467-1.716c.326-1.218 1.626-2.206 2.882-2.206h17.09c1.259 0 2.565.987 2.909 2.196l.495 1.75c.343 1.211-.409 2.201-1.667 2.195m-.697-22.16h-19.11v12.722h19.1v-12.722zm-12.764 11.416c-.094.153-.258.24-.427.24-.089 0-.176-.024-.258-.071-1.837-1.116-2.934-3.063-2.934-5.207 0-2.181 1.097-4.125 2.934-5.241.234-.138.541-.065.685.169.142.234.067.541-.167.684-1.539.931-2.455 2.556-2.455 4.35 0 1.831.916 3.459 2.455 4.391.234.144.309.448.167.685m1.063-1.613c-.095.15-.256.234-.422.234-.091 0-.183-.025-.264-.078-1.237-.778-1.975-2.119-1.975-3.581 0-1.5.738-2.837 1.974-3.619.229-.141.541-.078.688.156.147.231.077.541-.155.688-.945.597-1.509 1.619-1.509 2.737 0 1.156.564 2.181 1.508 2.775.231.151.302.457.155.688m1.517-1.962c.253.109.372.403.266.653-.081.19-.266.306-.459.306-.064 0-.131-.016-.193-.041-.959-.406-1.58-1.341-1.58-2.381 0-1.078.621-2.01 1.58-2.419.251-.103.543.013.653.266.106.253-.012.547-.266.653-.589.247-.97.822-.97 1.462-.002.679.38 1.254.969 1.501m1.65.919c-.063.025-.13.041-.193.041-.194 0-.378-.116-.459-.306-.106-.25.012-.544.265-.653.59-.247.971-.822.971-1.462 0-.678-.381-1.253-.971-1.5-.253-.106-.372-.4-.265-.653.108-.253.402-.369.653-.266.96.406 1.58 1.341 1.58 2.381-.0001 1.077-.621 2.01-1.581 2.418m1.551 1.278c-.166 0-.326-.084-.422-.234-.146-.231-.076-.538.156-.688.943-.594 1.508-1.619 1.508-2.737 0-1.156-.564-2.178-1.51-2.775-.23-.147-.301-.457-.154-.688.146-.234.456-.297.688-.156 1.236.781 1.974 2.119 1.974 3.581 0 1.5-.737 2.841-1.976 3.619-.081.053-.173.078-.264.078m1.326 1.547c-.081.047-.169.071-.258.071-.169 0-.333-.087-.427-.24-.143-.237-.067-.541.169-.685 1.537-.931 2.454-2.56 2.454-4.353 0-1.832-.917-3.457-2.454-4.388-.236-.144-.312-.45-.169-.684.144-.234.451-.307.685-.169 1.839 1.116 2.936 3.06 2.936 5.203-.0001 2.185-1.098 4.129-2.936 5.245"/></svg>

<?xml version="1.0" encoding="utf-8"?>
<!-- Generator: Adobe Illustrator 16.0.3, SVG Export Plug-In . SVG Version: 6.00 Build 0)  -->
<!DOCTYPE svg PUBLIC "-//W3C//DTD SVG 1.1//EN" "http://www.w3.org/Graphics/SVG/1.1/DTD/svg11.dtd">
<svg version="1.1" id="Layer_1" xmlns="http://www.w3.org/2000/svg" xmlns:xlink="http://www.w3.org/1999/xlink" x="0px" y="0px"
	 width="32px" height="32px" viewBox="0 0 32 32" enable-background="new 0 0 32 32" xml:space="preserve">
<path fill="#407CCA" d="M25.6,0H6.4C2.88,0,0,2.88,0,6.4v19.2C0,29.12,2.88,32,6.4,32h19.2c3.521,0,6.4-2.88,6.4-6.4V6.4
	C32,2.88,29.12,0,25.6,0z M4.53,4.919c0-0.531,0.43-0.959,0.959-0.959h21.023c0.529,0,0.959,0.428,0.959,0.959V19.56
	c0,0.531-0.43,0.959-0.959,0.959H5.489c-0.53,0-0.959-0.428-0.959-0.959V4.919z M26.25,28.041L5.766,28.028
	c-1.256,0-2.017-0.994-1.69-2.206l0.467-1.716C4.869,22.888,6.169,21.9,7.425,21.9h17.088c1.259,0,2.565,0.987,2.909,2.196
	l0.495,1.75C28.26,27.057,27.508,28.047,26.25,28.041z M25.553,5.878H6.448V18.6h19.104V5.878z M12.789,17.294
	c-0.094,0.153-0.258,0.24-0.427,0.24c-0.089,0-0.176-0.024-0.258-0.071C10.267,16.347,9.17,14.4,9.17,12.256
	c0-2.181,1.097-4.125,2.934-5.241c0.234-0.138,0.541-0.065,0.685,0.169c0.142,0.234,0.067,0.541-0.167,0.684
	c-1.539,0.931-2.455,2.556-2.455,4.35c0,1.831,0.916,3.459,2.455,4.391C12.856,16.753,12.931,17.057,12.789,17.294z M13.852,15.681
	c-0.095,0.15-0.256,0.234-0.422,0.234c-0.091,0-0.183-0.025-0.264-0.078c-1.237-0.778-1.975-2.119-1.975-3.581
	c0-1.5,0.738-2.837,1.974-3.619c0.229-0.141,0.541-0.078,0.688,0.156c0.147,0.231,0.077,0.541-0.155,0.688
	c-0.945,0.597-1.509,1.619-1.509,2.737c0,1.156,0.564,2.181,1.508,2.775C13.928,15.144,13.999,15.45,13.852,15.681z M15.369,13.719
	c0.253,0.109,0.372,0.403,0.266,0.653c-0.081,0.19-0.266,0.306-0.459,0.306c-0.064,0-0.131-0.016-0.193-0.041
	c-0.959-0.406-1.58-1.341-1.58-2.381c0-1.078,0.621-2.013,1.58-2.419c0.251-0.103,0.543,0.013,0.653,0.266
	c0.106,0.253-0.012,0.547-0.266,0.653c-0.589,0.247-0.97,0.822-0.97,1.462C14.398,12.897,14.78,13.472,15.369,13.719z
	 M17.019,14.638c-0.063,0.025-0.13,0.041-0.193,0.041c-0.194,0-0.378-0.116-0.459-0.306c-0.106-0.25,0.012-0.544,0.265-0.653
	c0.59-0.247,0.971-0.822,0.971-1.462c0-0.678-0.381-1.253-0.971-1.5c-0.253-0.106-0.372-0.4-0.265-0.653
	c0.108-0.253,0.402-0.369,0.653-0.266c0.96,0.406,1.58,1.341,1.58,2.381C18.599,13.297,17.979,14.231,17.019,14.638z M18.57,15.916
	c-0.166,0-0.326-0.084-0.422-0.234c-0.146-0.231-0.076-0.538,0.156-0.688c0.943-0.594,1.508-1.619,1.508-2.737
	c0-1.156-0.564-2.178-1.51-2.775c-0.23-0.147-0.301-0.457-0.154-0.688c0.146-0.234,0.456-0.297,0.688-0.156
	c1.236,0.781,1.974,2.119,1.974,3.581c0,1.5-0.737,2.841-1.976,3.619C18.753,15.891,18.661,15.916,18.57,15.916z M19.896,17.463
	c-0.081,0.047-0.169,0.071-0.258,0.071c-0.169,0-0.333-0.087-0.427-0.24c-0.143-0.237-0.067-0.541,0.169-0.685
	c1.537-0.931,2.454-2.56,2.454-4.353c0-1.832-0.917-3.457-2.454-4.388c-0.236-0.144-0.312-0.45-0.169-0.684
	c0.144-0.234,0.451-0.307,0.685-0.169c1.839,1.116,2.936,3.06,2.936,5.203C22.831,14.403,21.734,16.347,19.896,17.463z"/>
</svg>
